material/.icons/material/network-strength-2-alert.svg

<svg xmlns="http://www.w3.org/2000/svg" viewBox="0 0 24 24"><path d="M21 1L1 21h16v-2h-4v-7.17l6-6V7h2m-2 2v8h2V9m-2 10v2h2v-2"/></svg>

<?xml version="1.0" encoding="UTF-8"?><!DOCTYPE svg PUBLIC "-//W3C//DTD SVG 1.1//EN" "http://www.w3.org/Graphics/SVG/1.1/DTD/svg11.dtd"><svg xmlns="http://www.w3.org/2000/svg" xmlns:xlink="http://www.w3.org/1999/xlink" version="1.1" id="mdi-network-strength-2-alert" width="24" height="24" viewBox="0 0 24 24"><path d="M21,1L1,21H17V19H13V11.83L19,5.83V7H21M19,9V17H21V9M19,19V21H21V19" /></svg>
